client/src/resources/logo.svg

<?xml version="1.0" encoding="utf-8"?><!-- Uploaded to: SVG Repo, www.svgrepo.com, Generator: SVG Repo Mixer Tools -->
<svg width="800px" height="800px" viewBox="0 0 24 24" fill="none" xmlns="http://www.w3.org/2000/svg">
<path d="M21.0667 5C21.6586 5.95805 22 7.08604 22 8.29344C22 11.7692 19.1708 14.5869 15.6807 14.5869C15.0439 14.5869 13.5939 14.4405 12.8885 13.8551L12.0067 14.7333C11.272 15.465 11.8598 15.465 12.1537 16.0505C12.1537 16.0505 12.8885 17.075 12.1537 18.0995C11.7128 18.6849 10.4783 19.5045 9.06754 18.0995L8.77362 18.3922C8.77362 18.3922 9.65538 19.4167 8.92058 20.4412C8.4797 21.0267 7.30403 21.6121 6.27531 20.5876C6.22633 20.6364 5.952 20.9096 5.2466 21.6121C4.54119 22.3146 3.67905 21.9048 3.33616 21.6121L2.45441 20.7339C1.63143 19.9143 2.1115 19.0264 2.45441 18.6849L10.0963 11.0743C10.0963 11.0743 9.3615 9.90338 9.3615 8.29344C9.3615 4.81767 12.1907 2 15.6807 2C16.4995 2 17.282 2.15509 18 2.43738" stroke="#FFFFFF" stroke-width="1.5" stroke-linecap="round" stroke-linejoin="round"/>
<path d="M17.8851 8.29353C17.8851 9.50601 16.8982 10.4889 15.6807 10.4889C14.4633 10.4889 13.4763 9.50601 13.4763 8.29353C13.4763 7.08105 14.4633 6.09814 15.6807 6.09814C16.8982 6.09814 17.8851 7.08105 17.8851 8.29353Z" stroke="#FFFFFF" stroke-width="1.5"/>
</svg>

<svg xmlns="http://www.w3.org/2000/svg" width="800" height="800" fill="none" viewBox="0 0 24 24"><path stroke="#FFF" stroke-linecap="round" stroke-linejoin="round" stroke-width="1.5" d="M21.067 5c.592.958.933 2.086.933 3.293 0 3.476-2.83 6.294-6.32 6.294-.636 0-2.086-.146-2.791-.732l-.882.878c-.735.732-.147.732.147 1.317 0 0 .735 1.025 0 2.05-.441.585-1.676 1.404-3.086 0l-.294.292s.881 1.025.147 2.05c-.441.585-1.617 1.17-2.646.146l-1.028 1.024c-.706.703-1.568.293-1.91 0l-.883-.878c-.823-.82-.343-1.708 0-2.05l7.642-7.61s-.735-1.17-.735-2.78c0-3.476 2.83-6.294 6.32-6.294.819 0 1.601.155 2.319.437"/><path stroke="#FFF" stroke-width="1.5" d="M17.885 8.294a2.2 2.2 0 0 1-2.204 2.195 2.2 2.2 0 0 1-2.205-2.195 2.2 2.2 0 0 1 2.205-2.196 2.2 2.2 0 0 1 2.204 2.196Z"/></svg>
